!!!OTL: MEIN MUETTERLEIN DAS FRAGET ABER MICH
!!!ARE: Europa, Mitteleuropa, Deutschland
!!!SCT: E0844
!!!YEM: Copyright 1995, estate of Helmut Schaffrath.
**kern
*ICvox
*Ivox
*M4/4
*k[f#c#]
*D:
{4dd
=1
4dd
4dd
4dd
4dd
=2
4a
4a
4a}
{4a
=3
4.ee
8dd
4ccn
4b
=4
2a
2r}
=5
{4dd
4dd
4dd
4dd
=6
2ccn
2a}
=7
{4.ccn
8b-
4a
4g
=8
2fn
2r}
=9
{4fn
4fn
4g
4g
=10
2a
4d}
{4dd
=11
4ccn
4dd
2ee
=12
2dd
4r}
{4dd
=13
4dd
4dd
4dd
4dd
=14
4.ccn
8b
2a}
=15
{4dd
4dd
4dd
4dd
=16
4.ccn
8b
4a}
{4g
=17
4a
4fn
2e
=18
2d
4r}
{4g
=19
4a
4fn
2e
=20
2.d}
==
!!!AGN: Hochzeits -, Ehestands - Lied
!!!ONB: ESAC (Essen Associative Code) Database: ERK2
!!!AMT: simple quadruple
!!!AIN: vox
!!!EED: Helmut Schaffrath
!!!EEV: 1.0
*-
